X: 81
T: Gan Ainm
R: Hornpipe
Z: Adrian Scahill
M: 4/4
L: 1/8
S: Robert Eckert <Robert@WHISTLEPLAYERS.ZZN.COM> irtrad-l 2001-6-18
K: C
|:\
CEGe fd (3Bcd | cCEG cege | (3fga df (3efg ce | defd (3BAG (3FED |\
CEGe fd (3Bcd | cegc' e'c'b_b | acfa gceg |1 dGBd c4 :|2 dGBd c2ef ||
|:\
gagf egab | c'2ba g2 (3c'ba | gceg dGBd | cAfc afc'a |\
gceg dGBd | cegc' e'cb_b | acfa gceg | dGBd c2ef :|
